X:1
T:Virtute magna - Croce
T:James Gibb editions
T:#
%%score [ 1 2 3 4 ]
L:1/8
Q:1/4=216
M:none
K:F
V:1 treble nm="Soprano" snm="S"
V:2 treble nm="Alto" snm="A"
V:3 treble-8 nm="Tenor" snm="T"
V:4 bass nm="Bass" snm="B"
V:1
"^Acts 4:33" z16 |"^Virtute magna" z16 | c8 c4 c4 | B8 A4 A4 | %4
w: ||Vir- tu- te|ma- gna red-|
"^Giovanni Croce\n(1557-1609)" c8 B4 B4 | (A8 G6) G2 | A4 A4 F8 | F4 A4 G6 G2 | F16- | F8 z4 B4- | %10
w: de- bant A-|po\- * sto-|li, red- de-|bant A- po- sto-|li|* te\-|
 B4 A4 (A4 G2 F2 | A4) G4 F4 c4- | c4 B4 (c6 B2 | A4 G2 F2 A4) G4 | (A6 G2 F8) | z8 z4 c4- | %16
w: * sti- mo\- * *|* ni- um, te\-|* sti- mo\- *|* * * * ni-|um * *|re\-|
 c4 B4 (c6 B2 | A4 G2 F2 A4) G4 | F8 c8 | G8 (A6 B2 | c8) d8 | G4 G6 G2 B4 | (A8 G8) | %23
w: * sur- re\- *|* * * * cti-|o- nis|Je- su *|* Chri-|sti Do- mi- ni|no\- *|
 A4 B6 B2 G4 | (A2 B2 c8 =B4) | c8 z8[Q:1/4=240] | z4 c4 B4 B4 | A4 A4 B4 G4 | F8 z4 c4 | %29
w: stri, Do- mi- ni|no\- * * *|stri.|Al- le- lu-|ia, al- le- lu-|ia, al-|
[Q:1/4=240][Q:1/4=240][Q:1/4=240][Q:1/4=240] B4 G4 A4 d4 | G6 G2 A4 G4- | G4 c8 B4 | A4 A4 G4 G4 | %33
w: le- lu- ia, al-|le- lu- ia, al\-|* le- lu-|ia, al- le- lu-|
 A4 c4 B4 A4 | G8 z8 | z4 c4 B4 B4 | A4 A4 B4 G4 | F8 z4 c4 | B4 G4 A4 d4 | G6 G2 A4 G4- | %40
w: ia, al- le- lu-|ia,|al- le- lu-|ia, al- le- lu-|ia, al-|le- lu- ia, al-|le- lu- ia, al\-|
 G4 c8 B4 | A4 A4 G4 G4 |"^rall."[Q:1/4=237] A4[Q:1/4=231] B8[Q:1/4=225] c4 | %43
w: * le- lu-|ia, al- le- lu-|ia, al- le-|
[Q:1/4=220] (d6[Q:1/4=216] c2[Q:1/4=214] B2[Q:1/4=212] F2[Q:1/4=209] B4- | %44
w: lu\- * * * *|
[Q:1/4=205] B4[Q:1/4=202] A2[Q:1/4=200] G2)[Q:1/4=200] !fermata!A8 |] %45
w: * * * ia.|
V:2
 z16 | z8 F8 | F4 F4 E8 | D4 D4 F8 | G4 G4 G6 G2 | C4 F8 E4 | F4 C4 D8 | D4 F4 F4 E4 | F8 z8 | %9
w: |Vir-|tu- te ma-|gna red- de-|bant, red- de- bant|A- po- sto-|li, red- de-|bant A- po- sto-|li|
 z4 F8 E4 | (F6 E2 D4) D4 | C8 A6 G2 | F12 E4 | F8 C8 | z8 z4 F4- | F4 E4 F4 F4 | D8 C8- | C16 | %18
w: te- sti-|mo\- * * ni-|um re- sur-|re- cti-|o- nis|re\-|* sur- re- cti-|o- nis||
 z4 F8 E4 | D8 C4 (C4- | C2 D2 E2) C2 F8 | E8 G6 G2 | E4 (F8 E4) | F12 E4 | F4 C4 G8 | %25
w: Je- su|Chri- sti, Je\-|* * * su Chri-|sti, Do- mi-|ni no\- *|stri, Do-|mi- ni no-|
 G4 E4 F4 G4 | A4 A4 G4 G4 | C4 F4 D4 E4 | F8 z8 | z4 G4 F4 F4 | E4 G4 F4 D4 | E8 A4 (G2 F2 | %32
w: stri. Al- le- lu-|ia, al- le- lu-|ia, al- le- lu-|ia,|al- le- lu-|ia, al- le- lu-|ia, al- le\- *|
 E2 C2 F8) E4 | F8 z4 F4 | (E2 F2 G2 E2 F4) G4 | A4 A4 G4 G4 | C4 F4 D4 E4 | F8 z8 | z4 G4 F4 F4 | %39
w: * * * lu-|ia, al-|le\- * * * * lu-|ia, al- le- lu-|ia, al- le- lu-|ia,|al- le- lu-|
 E4 G4 F4 D4 | E8 A4 (G2 F2 | E2 C2 F8) E4 |"^rall." F16- | F16 | !fermata!F16 |] %45
w: ia, al- le- lu-|ia, al- le\- *|* * * lu-|ia.|||
V:3
 z8 c8 | c4 c4 B8 | A4 A4 c8 | d4 B4 c4 f4 | e4 e4 (d6 e2 | f4) c4 c8- | c8 z8 | z16 | z4 d8 c4 | %9
w: Vir-|tu- te ma-|gna red- de-|bant A- po- sto-|li, A- po\- *|* sto- li,|||te- sti-|
 (d6 c2 B4) B4 | c8 z4 f4- | f4 e4 (f6 e2 | d4) d4 c8 | F4 c4 c6 c2 | c4 c8 B4 | (c6 B2 A4) A4 | %16
w: mo\- * * ni-|um, te\-|* sti- mo\- *|* ni- um,|te- sti- mo- ni-|um, te- sti-|mo\- * * ni-|
 G4 g8 e4 | f4 f4 (c8 | d8) G4 c4- | c4 B4 (A8 | G4 c8 =B4) | c4 c4 e4 d4 | c16 | c4 d8 c4- | %24
w: um re- sur-|re- cti- o\-|* nis Je\-|* su Chri\-||sti, Do- mi- ni|no-|stri, Do- mi\-|
 c4 f4 d8 | c4 c4 d4 d4 | e4 f4 d4 e4 | f8 z4 c4 | A4 d4 c4 A4 | (B4 c8) B4 | c4 c4 c4 =B4 | %31
w: * ni no-|stri. Al- le- lu-|ia, al- le- lu-|ia, al-|le- lu- ia, al-|le\- * lu-|ia, al- le- lu-|
 c8 A4 _B4 | c16 | c4 A4 G4 F4 | c4 c4 d4 d4 | e4 f4 d4 e4 | f8 z4 c4 | A4 d4 c4 A4 | (B4 c8) B4 | %39
w: ia, al- le-|lu-|ia, al- le- lu-|ia, al- le- lu-|ia, al- le- lu-|ia, al-|le- lu- ia, al-|le\- * lu-|
 c4 c4 c4 =B4 | c8 A4 _B4 | c16 |"^rall." c4 d8 c4 | (B6 c2 d8) | !fermata!c16 |] %45
w: ia, al- le- lu-|ia, al- le-|lu-|ia, al- le-|lu\- * *|ia.|
V:4
 F,8 F,4 F,4 | E,8 D,4 D,4 | F,8 C,4 C,4 | G,6 G,2 F,4 F,4 | C,8 G,8 | F,8 C,4 C,4 | F,4 F,4 B,8 | %7
w: Vir- tu- te|ma- gna red-|de- bant A-|po- sto- li, red-|de- bant|A- po- sto-|li, red- de-|
 B,4 F,4 C4 C,4 | F,4 B,8 A,4 | (B,6 A,2 G,4) G,4 | F,8 z8 | z16 | z16 | z4 F,8 E,4 | %14
w: bant A- po- sto-|li te- sti-|mo\- * * ni-|um,|||te- sti-|
 (F,6 E,2 D,4) D,4 | C,8 F,4 F,4 | G,4 G,4 C,8 | F,4 F,8 E,4 | D,8 C,8 | z8 z4 F,4- | F,4 E,4 D,8 | %21
w: mo\- * * ni-|um re- sur-|re- cti- o-|nis Je- su|Chri- sti,|Je\-|* su Chri-|
 C,4 C6 C2 G,4 | (A,6 B,2 C8) | F,4 B,6 B,2 C4 | (F,8 G,8) | C,4 C4 B,4 B,4 | A,4 F,4 G,4 G,4 | %27
w: sti, Do- mi- ni|no\- * *|stri, Do- mi- ni|no\- *|stri. Al- le- lu-|ia, al- le- lu-|
 F,8 z8 | z4 B,4 A,4 F,4 | G,4 E,4 F,4 D,4 | C,4 E,4 F,4 G,4 | C,8 F,4 G,4 | (A,6 B,2 C4 C,4) | %33
w: ia,|al- le- lu-|ia, al- le- lu-|ia, al- le- lu-|ia, al- le-|lu\- * * *|
 F,8 z8 | z4 C4 B,4 B,4 | A,4 F,4 G,4 G,4 | F,8 z8 | z4 B,4 A,4 F,4 | G,4 E,4 F,4 D,4 | %39
w: ia,|al- le- lu-|ia, al- le- lu-|ia,|al- le- lu-|ia, al- le- lu-|
 C,4 E,4 F,4 G,4 | C,8 F,4 G,4 | (A,6 B,2 C4 C,4) |"^rall." F,4 B,8 A,4 | B,16 | !fermata!F,16 |] %45
w: ia, al- le- lu-|ia, al- le-|lu\- * * *|ia, al- le-|lu-|ia.|

